images/twitter.svg

<svg xmlns="http://www.w3.org/2000/svg" width="32" height="32" fill="none">
  <g clip-path="url(#a)">
    <path fill="#fff" d="M32 6.078c-1.19.522-2.458.868-3.78 1.036a6.523 6.523 0 0 0 2.886-3.626 13.11 13.11 0 0 1-4.16 1.588A6.574 6.574 0 0 0 22.154 3c-3.632 0-6.556 2.948-6.556 6.562 0 .52.044 1.02.152 1.496-5.454-.266-10.28-2.88-13.522-6.862a6.605 6.605 0 0 0-.898 3.316 6.57 6.57 0 0 0 2.914 5.452 6.479 6.479 0 0 1-2.964-.808v.072c0 3.188 2.274 5.836 5.256 6.446a6.548 6.548 0 0 1-1.72.216 5.8 5.8 0 0 1-1.242-.112c.85 2.598 3.262 4.508 6.13 4.57a13.182 13.182 0 0 1-8.134 2.798c-.538 0-1.054-.024-1.57-.09A18.469 18.469 0 0 0 10.064 29c12.072 0 18.672-10 18.672-18.668 0-.29-.01-.57-.024-.848A13.087 13.087 0 0 0 32 6.078Z"/>
  </g>
  <defs>
    <clipPath id="a">
      <path fill="#fff" d="M0 0h32v32H0z"/>
    </clipPath>
  </defs>
</svg>

<svg width="32" height="32" viewBox="0 0 32 32" fill="none" xmlns="http://www.w3.org/2000/svg">
<g id="twitter" clip-path="url(#clip0_10176_81)">
<g id="Group">
<g id="Group_2">
<path id="Vector" d="M32 6.078C30.81 6.6 29.542 6.946 28.22 7.114C29.58 6.302 30.618 5.026 31.106 3.488C29.838 4.244 28.438 4.778 26.946 5.076C25.742 3.794 24.026 3 22.154 3C18.522 3 15.598 5.948 15.598 9.562C15.598 10.082 15.642 10.582 15.75 11.058C10.296 10.792 5.47 8.178 2.228 4.196C1.662 5.178 1.33 6.302 1.33 7.512C1.33 9.784 2.5 11.798 4.244 12.964C3.19 12.944 2.156 12.638 1.28 12.156C1.28 12.176 1.28 12.202 1.28 12.228C1.28 15.416 3.554 18.064 6.536 18.674C6.002 18.82 5.42 18.89 4.816 18.89C4.396 18.89 3.972 18.866 3.574 18.778C4.424 21.376 6.836 23.286 9.704 23.348C7.472 25.094 4.638 26.146 1.57 26.146C1.032 26.146 0.516 26.122 0 26.056C2.906 27.93 6.35 29 10.064 29C22.136 29 28.736 19 28.736 10.332C28.736 10.042 28.726 9.762 28.712 9.484C30.014 8.56 31.108 7.406 32 6.078Z" fill="white"/>
</g>
</g>
</g>
<defs>
<clipPath id="clip0_10176_81">
<rect width="32" height="32" fill="white"/>
</clipPath>
</defs>
</svg>
